!!!COM: Bach, Johann Sebastian
!!!CDT: 1685/3//-1750/7/28/
!!!OTL@@DE: O Haupt voll Blut und Wunden
!!!AGN: 4-Part Chorale
!!!SCT: BH 098
!!!SCT: BWV 244
**harm	**root	**kern	**kern	**kern	**kern
!	!	!bass	!tenor	!alto	!soprno
*	*Iorgan	*Iorgan	*Iorgan	*Iorgan	*Iorgan
*	*	*clefF4	*clefF4	*clefG2	*clefG2
*M4/4	*M4/4	*M4/4	*M4/4	*M4/4	*M4/4
*met(c)	*met(c)	*met(c)	*met(c)	*met(c)	*met(c)
*MM60	*MM60	*MM60	*MM60	*MM60	*MM60
*k[b-e-a-]	*k[b-e-a-]	*k[b-e-a-]	*k[b-e-a-]	*k[b-e-a-]	*k[b-e-a-]
*E-:	*E-:	*E-:	*E-:	*E-:	*E-:
*>[A,A,B]	*>[A,A,B]	*>[A,A,B]	*>[A,A,B]	*>[A,A,B]	*>[A,A,B]
*>A	*>A	*>A	*>A	*>A	*>A
I	4DD	4E-	4B-	4e-	4g
=1	=1	=1	=1	=1	=1
IV	4GG	4A-	4A-	4e-	4cc
Ib	4DD	4G	4B-	4e-	4b-
IVb	8GG	8C	8c	8e-	4a-
V7b	8AA	8D	8B-	8f	.
I	4DD	4E-	4B-	8f	4g
.	.	.	.	8e-	.
=2	=2	=2	=2	=2	=2
ii7b	4EE	4AA-	4c	4e-	2f
V	4AA	4BB-	4B-	4d	.
I;	4DD;	4E-;	4B-;	4e-;	4g;
viib/vi	4AA#	4D	4B	4f	4dd
=3	=3	=3	=3	=3	=3
vi	4BB	8C	4G	8e-	4ee-
.	.	8D	.	8f	.
vib	4BB	8E-	4c	4g	4ee-
.	.	8F	.	.	.
V/vi	4FF#	4G	4c	4g	8dd
.	.	.	.	.	8cc
V/vi	4FF#	4GG	4B	8g	4dd
.	.	.	.	8f	.
=4	=4	=4	=4	=4	=4
vi;	2.BB;	2.C;	2.c;	2.e-;	2.cc;
=:|!	=:|!	=:|!	=:|!	=:|!	=:|!
*>B	*>B	*>B	*>B	*>B	*>B
vi	4BB	4c	4g	8cc	4ee-
.	.	.	.	8b-	.
=5	=5	=5	=5	=5	=5
viib	4CC#	4F	8f	4a-	8dd
.	.	.	8e-	.	8cc
iii	4FF#	4G	4d	8g	4b-
.	.	.	.	8f	.
IV	4GG	8A-	8c	4e-	4cc
.	.	8G	8B-	.	.
viib	4CC#	4F	8A-	4a-	4dd
.	.	.	8B-	.	.
!!linebreak: 2
=6	=6	=6	=6	=6	=6
IVc	4GG	2E-	4c	4a-	2ee-
I	4DD	.	8B-	8g	.
.	.	.	8A-	8f	.
I;	4DD;	4E-;	4B-;	4g;	4ee-;
I	4DD	4E-	4e-	4g	4b-
=7	=7	=7	=7	=7	=7
IV	4GG	4A-	4e-	4a-	4cc
I	4DD	4E-	8e-	4g	4b-
.	.	.	8d	.	.
ii	4EE	8F	4c	4g	4a-
.	.	8G	.	.	.
iib	4EE	8A-	4c	4f	4a-
.	.	8B-	.	.	.
=8	=8	=8	=8	=8	=8
VI;	2.BB;	2.c;	2.c;	2.e;	2.g;
V7b/V	4EE	4A	4c	4f	4ee-
=9	=9	=9	=9	=9	=9
V	4AA	4B-	4B-	4f	8dd
.	.	.	.	.	8ee-
Vb	4AA	4D	8B-	4f	4ff
.	.	.	8A	.	.
Ib	4DD	8G	8B-	4g	4ee-
.	.	8A	8c	.	.
V	4AA	4B-	8d	4f	4dd
.	.	.	8B-	.	.
=10	=10	=10	=10	=10	=10
vib	4BB	4E-	8G	4g	2cc
.	.	.	8c	.	.
V/V	4EE	4F	4A	4f	.
V;	4AA;	4BB-;	4B-;	4f;	4dd;
I	4DD	8E-	4B-	4e-	4g
.	.	8D	.	.	.
=11	=11	=11	=11	=11	=11
IVb	4GG	4C	4A-	8e-	4a-
.	.	.	.	8d	.
Ic	4DD	4BB-	4B-	4e-	4g
ii7b	4EE	4AA-	4c	4e-	4f
V	4AA	4BB-	8F	4d	4b-
.	.	.	8B-	.	.
=12	=12	=12	=12	=12	=12
I;	2.DD;	2.E-;	2.B-;	2.e-;	2.g;
==	==	==	==	==	==
*-	*-	*-	*-	*-	*-
!!chor2scor: -l 2 -s 0.6 -o %b.pmx
!!!YEC: Copyright 1994, David Huron
!!!YEC: Changes/Additions 2001 by Craig Stuart Sapp
!!!YEN: United States of America
!!!SMA: 371 Bach Chorales, edited by Ludwig Erk, C.F. Peters
!!!PDT: 1850, 1865
!!!ONB: Harmony and Root analysis done manually by Craig Sapp
